X:2426
T:Caliope House
C:Dave Richardson
R:jig
N:Played in D or E. The original is in E.
D:Patrick Street 1.
Z:id:hn-jig-14
M:6/8
K:D
~a3 faa|eaa def|~g3 fgf|~e3 edB|ABA A2F|A2B d2e|
[1 ~f3 fed|e2e efg:| [2 ~f3 efe|d3 dAB||
dAA fAA|eAA fed|Bee ~e2d|efd ~B3|ABA A2F|A2B d2e|faf fed|~e3 edB|
Add fAA|eAA fed|Bee ~e2d|efd ~B3|ABA A2F|A2B d2e|faf edB|d3 d2a||
K:E
~b3 gbb|fbb efg|~a3 gag|~f3 fec|BcB B2G|B2c e2f|
[1 ~g3 gfe|f2f fga:| [2 ~g3 fgf|e3 eBc||
eBB gBB|fBB gfe|cff ~f2e|fge ~c3|BcB B2G|B2c e2f|gbg gfe|~f3 fec|
Bee gBB|fBB gfe|cff ~f2e|fge ~c3|BcB B2G|B2c e2f|gbg fec|e3 e2b||


